Newaita-dark/actions/32/view-more-horizontal.svg

<svg height="32" viewBox="0 0 32 32" width="32" xmlns="http://www.w3.org/2000/svg"><g fill="#e0e0e0"><path d="m25.800781 12.820312c-1.832031 0-3.308593 1.472657-3.308593 3.304688s1.476562 3.308594 3.308593 3.308594 3.304688-1.476563 3.304688-3.308594-1.472657-3.304688-3.304688-3.304688zm0 0"/><path d="m15.875 12.820312c-1.832031 0-3.304688 1.472657-3.304688 3.304688s1.472657 3.308594 3.304688 3.308594 3.308594-1.476563 3.308594-3.308594-1.476563-3.304688-3.308594-3.304688zm0 0"/><path d="m5.953125 12.820312c-1.832031 0-3.308594 1.472657-3.308594 3.304688s1.476563 3.308594 3.308594 3.308594 3.308594-1.476563 3.308594-3.308594-1.476563-3.304688-3.308594-3.304688zm0 0"/></g></svg>

<svg xmlns="http://www.w3.org/2000/svg" xmlns:xlink="http://www.w3.org/1999/xlink" width="32px" height="32px" viewBox="0 0 32 32" version="1.1">
<g id="surface1">
     <defs>
  <style id="current-color-scheme" type="text/css">
   .ColorScheme-Text { color:#eeeeee; } .ColorScheme-Highlight { color:#424242; }
  </style>
 </defs>
<path style="fill:currentColor" class="ColorScheme-Text" d="M 25.800781 12.820312 C 23.96875 12.820312 22.492188 14.292969 22.492188 16.125 C 22.492188 17.957031 23.96875 19.433594 25.800781 19.433594 C 27.632812 19.433594 29.105469 17.957031 29.105469 16.125 C 29.105469 14.292969 27.632812 12.820312 25.800781 12.820312 Z M 25.800781 12.820312 "/>
     <defs>
  <style id="current-color-scheme" type="text/css">
   .ColorScheme-Text { color:#eeeeee; } .ColorScheme-Highlight { color:#424242; }
  </style>
 </defs>
<path style="fill:currentColor" class="ColorScheme-Text" d="M 15.875 12.820312 C 14.042969 12.820312 12.570312 14.292969 12.570312 16.125 C 12.570312 17.957031 14.042969 19.433594 15.875 19.433594 C 17.707031 19.433594 19.183594 17.957031 19.183594 16.125 C 19.183594 14.292969 17.707031 12.820312 15.875 12.820312 Z M 15.875 12.820312 "/>
     <defs>
  <style id="current-color-scheme" type="text/css">
   .ColorScheme-Text { color:#eeeeee; } .ColorScheme-Highlight { color:#424242; }
  </style>
 </defs>
<path style="fill:currentColor" class="ColorScheme-Text" d="M 5.953125 12.820312 C 4.121094 12.820312 2.644531 14.292969 2.644531 16.125 C 2.644531 17.957031 4.121094 19.433594 5.953125 19.433594 C 7.785156 19.433594 9.261719 17.957031 9.261719 16.125 C 9.261719 14.292969 7.785156 12.820312 5.953125 12.820312 Z M 5.953125 12.820312 "/>
</g>
</svg>
